X:1
T:Title
%%score { ( 1 4 ) | ( 2 3 ) }
L:1/8
Q:1/4=108
M:4/4
K:Bb
V:1 treble nm="Grand Piano"
V:4 treble 
V:2 bass 
V:3 bass 
V:1
 [DF]2 [DF]>[DF] [EG][DF][B,D][CE] | [DF]2 [DB]2 z4 | c2 c>c [FB]2 [Fc]2 | [Fd]6 z2 | %4
w: Geo.~C.~Hugg * * * * * *||||
 [Fd]2 [Fd]>[Fd] [Ge][Fd][Ec]B | G2 c2 z2 [GB]2 | B3 B d3 c | [DB]6 z2 | %8
w: ||||
 [DF]2 [DF]>[DF] [EG]F[B,D]E | [B,DF]2 [DB]2 z4 | z4 z2 [G_d]2 | [^Fd]6 z2 | %12
w: ||||
 [Fd]2 [Fd]>[Fd] [Ge][Fd][Ec][DB] | [FA]2 G2 z2 G2 | F3 B c2 d2 | [DB]6 z2 | %16
w: ||||
 [Fd]2 [DB]>[EG] [DF]2 DG | [B,DF]2 [DB]2 z4 | c2 d>d [Ge]2 [Gc]2 | B4 A4 | %20
w: ||||
 [Fd]2 [Fd][Fd] [Ec]2 [FB]2 | [EG]2 [Ge]2 z4 | d2 cB d3 c | [DB]8 |] %24
w: ||||
V:2
 [B,,B,]2 [B,,B,]>[B,,B,] [B,,B,]2 [B,,F,]2 | [B,,B,]2 [B,,F,]2 z4 | %2
 [F,A,E]2 [F,A,E]>[F,A,E] [D,B,]2 [C,A,]2 | [B,,B,]6 z2 | [B,,B,]2 [B,,B,]>[B,,B,] [B,,B,]2 z D | %5
 [E,B,E]2 [E,G,E]2 z2 [E,B,]2 | [F,DF]3 [F,B,D] [F,B,F]3 [F,A,E] | [B,,B,]6 z2 | %8
 [B,,B,]2 [B,,B,]>[B,,B,] z D z C | B,,2 [B,,F,]2 z4 | G,,2 G,>G, E,2 .[E,B,]2 | [D,A,]6 z2 | %12
 [B,,B,]2 [B,,B,]>[B,,B,] [B,,B,]2 [B,,B,]2 | [D,B,]2 [E,B,E]2 z2 [E,B,E]2 | %14
 [F,B,D]3 [F,B,D] [F,A,E]2 [F,B,F]2 | [B,,B,]6 z2 | [B,,B,]2 [B,,B,]>[B,,B,] [B,,B,]2 B,E | %17
 B,,2 [B,,F,]2 z4 | [F,A,E]2[K:treble] [B,F]>[B,_A][K:bass] [E,B,]2 [=E,C]2 | D4 z4 | %20
 [B,,B,]2 [B,,B,][B,,B,] [C,A,]2 [D,B,]2 | [E,B,]2 [E,B,]2 z4 | %22
 [F,B,F]2 [F,A,E][F,B,D] [F,B,F]3 [F,A,E] | [B,,B,]8 |] %24
V:3
 x8 | x8 | x8 | x8 | z4 z2 [B,,B,]2 | x8 | x8 | x8 | z4 [B,,B,]2 B,,2 | x8 | x8 | x8 | x8 | x8 | %14
 x8 | x8 | z4 z2 B,,2 | x8 | x2[K:treble] x2[K:bass] x4 | [F,F]4- [F,CF]4 | x8 | x8 | x8 | x8 |] %24
V:4
 x8 | x8 | x8 | x8 | x8 | x8 | x8 | x8 | x8 | x8 | [DGB]2 [DGB]>[DGB] [EGc]2 z G, | x8 | x8 | x8 | %14
 x8 | x8 | x8 | x8 | x8 | x8 | x8 | x8 | x8 | x8 |] %24

